dist/svg/star-o.svg

<!-- Generated by Trend Micro Style Portal -->
<svg version="1.1" xmlns="http://www.w3.org/2000/svg" width="16" height="16" viewBox="0 0 16 16">
  <title>star-o</title>
  <path fill="rgb(34,34,34)" d="M8 2.351l1.803 3.837 4.121 0.629-2.984 3.056 0.695 4.257-3.634-2.007-3.633 2.007 0.695-4.257-2.985-3.056 4.121-0.629 1.803-3.837zM8 0l-2.481 5.28-5.519 0.842 3.993 4.088-0.945 5.79 4.952-2.735 4.953 2.735-0.945-5.79 3.992-4.088-5.519-0.842-2.481-5.28z"></path>
</svg>

<svg width="16" height="16" viewBox="0 0 16 16" fill="rgb(34, 34, 34)" xmlns="http://www.w3.org/2000/svg"><title>star-o</title><path d="M8 2.351L9.803 6.188L13.924 6.817L10.94 9.873L11.635 14.13L8.001 12.123L4.368 14.13L5.063 9.873L2.078 6.817L6.199 6.188L8.002 2.351H8ZM8 0L5.519 5.28L0 6.122L3.993 10.21L3.048 16L8 13.265L12.953 16L12.008 10.21L16 6.122L10.481 5.28L8 0Z" fill="rgb(34, 34, 34)" fill-opacity="1.00"/></svg>
